X:5931
T:See It There
O:england
M:4/4
L:1/8
Q:1/8=90
C:Liz Carroll
S:trans by Paul O'Brien from CD
K:G
|A,[|:D2 FA df eg|fd e=fecAG|E2CD EGAB|{Bc}BAGE cAGE
|D2FA dfeg|ecG=F (3EFG) cE|{EG}EDAc BGAd
|1Gc (3EFG) FD D2:||2Gc (3EFG) FDDg|]
[|:fd (3efg) (3fga)  ge|dcAG FDDF|FE cE dE (3ABc)
|d2AG{G}FDDg|fd (3efg) (3fga)  ge|d2 AG{G}FD Ac|
BG Ad Gc (3EFG)|1cG EG FD D g:||2cAEG~FDD2|]


